img/social-icons/instagram.svg

<svg width="28" height="28" viewBox="0 0 28 28" fill="none" xmlns="http://www.w3.org/2000/svg">
<path d="M17.7718 6.40267C16.7883 6.35833 16.492 6.349 14 6.349C11.508 6.349 11.2128 6.35833 10.2293 6.40267C7.69767 6.51817 6.51817 7.7175 6.40383 10.2282C6.35833 11.2128 6.34783 11.508 6.34783 14C6.34783 16.492 6.35833 16.7872 6.40267 17.7718C6.51817 20.2778 7.693 21.4818 10.2282 21.5973C11.2117 21.6417 11.508 21.6522 14 21.6522C16.4932 21.6522 16.7883 21.6428 17.7718 21.5985C20.3035 21.483 21.4818 20.2813 21.5973 17.773C21.6417 16.7883 21.651 16.4932 21.651 14.0012C21.651 11.5092 21.6417 11.214 21.5973 10.2305C21.4818 7.71867 20.3012 6.51817 17.7718 6.40267ZM14 18.7927C11.3528 18.7927 9.20733 16.6472 9.20733 14C9.20733 11.3528 11.354 9.20733 14 9.20733C16.646 9.20733 18.7927 11.3528 18.7927 14C18.7927 16.6472 16.6472 18.7927 14 18.7927ZM18.9828 10.1383C18.3645 10.1383 17.8628 9.63667 17.8628 9.01833C17.8628 8.4 18.3645 7.89833 18.9828 7.89833C19.6012 7.89833 20.1028 8.4 20.1028 9.01833C20.1028 9.63667 19.6012 10.1383 18.9828 10.1383ZM17.1115 14C17.1115 15.7185 15.7185 17.1115 14 17.1115C12.2815 17.1115 10.8885 15.7185 10.8885 14C10.8885 12.2815 12.2815 10.8885 14 10.8885C15.7185 10.8885 17.1115 12.2815 17.1115 14ZM22.1667 0H5.83333C2.61217 0 0 2.61217 0 5.83333V22.1667C0 25.3878 2.61217 28 5.83333 28H22.1667C25.389 28 28 25.3878 28 22.1667V5.83333C28 2.61217 25.389 0 22.1667 0V0ZM23.2773 17.8477C23.1233 21.2415 21.2345 23.1222 17.8488 23.2773C16.8525 23.3228 16.5352 23.3333 14 23.3333C11.4648 23.3333 11.1487 23.3228 10.1523 23.2773C6.75967 23.1222 4.879 21.238 4.72267 17.8477C4.67717 16.8525 4.66667 16.5352 4.66667 14C4.66667 11.466 4.67717 11.1475 4.72267 10.1523C4.879 6.75967 6.762 4.87783 10.1523 4.72383C11.1487 4.67717 11.4648 4.66667 14 4.66667C16.5352 4.66667 16.8525 4.67717 17.8488 4.72267C21.2415 4.87783 23.1257 6.7655 23.2773 10.1512C23.3228 11.1475 23.3333 11.466 23.3333 14C23.3333 16.5352 23.3228 16.8525 23.2773 17.8477Z" fill="#FAFAFA"/>
</svg>

<svg width="28" height="28" fill="none" xmlns="http://www.w3.org/2000/svg"><path d="M17.772 6.403c-.984-.045-1.28-.054-3.772-.054s-2.787.01-3.77.054c-2.532.115-3.712 1.315-3.826 3.825-.046.985-.056 1.28-.056 3.772s.01 2.787.055 3.772c.115 2.506 1.29 3.71 3.825 3.825.984.045 1.28.055 3.772.055 2.493 0 2.788-.01 3.772-.053 2.532-.116 3.71-1.318 3.825-3.826.045-.985.054-1.28.054-3.772s-.01-2.787-.054-3.77c-.115-2.512-1.296-3.713-3.825-3.828zM14 18.793a4.792 4.792 0 110-9.585 4.792 4.792 0 010 9.585zm4.983-8.655a1.12 1.12 0 110-2.24 1.12 1.12 0 010 2.24zM17.11 14a3.111 3.111 0 11-6.222 0 3.111 3.111 0 016.223 0zm5.056-14H5.833A5.834 5.834 0 000 5.833v16.334A5.834 5.834 0 005.833 28h16.334A5.833 5.833 0 0028 22.167V5.833A5.833 5.833 0 0022.167 0zm1.11 17.848c-.154 3.393-2.043 5.274-5.428 5.43-.997.045-1.314.055-3.849.055s-2.851-.01-3.848-.056c-3.392-.155-5.273-2.039-5.43-5.43-.045-.995-.055-1.312-.055-3.847 0-2.534.01-2.852.056-3.848.156-3.392 2.039-5.274 5.43-5.428.996-.047 1.312-.057 3.847-.057s2.852.01 3.849.056c3.392.155 5.277 2.043 5.428 5.428.046.997.056 1.315.056 3.849 0 2.535-.01 2.852-.056 3.848z" fill="#FAFAFA"/></svg>
